X: 42505
T: What Surprise?
R: waltz
M: 3/4
K: Dmajor
D2 E2 D2|E2 F2 E2|D2 E2 D2|E2 F2 E2|D6||
D2 E2 D2|E2 F2 E2|D2 E2 D2|E2 G2 F2|d2||
D2 C2 B,2|D2 C2 A,2|D2 B,2 A,2|G,2 G2 G2|G6:|
D2 GB d2|GB D2 E2|G3 F F2|G2 D2 GA|A2 cd|e2 g2 f2|Hd2 D4||

